X:100
T: RINGEL RINGEL ROSE
N: K2083
O: Europa, Mitteleuropa, Deutschland, Westfalen
R: Kinder - Lied, Reigen, Tanz - Spiel
M: 2/4
L: 1/8
K: Bb
 | ddcc | B2F2 |
ddcc | B2F2 |
d2cc | B2F2 |
ddcc | B2F2 |
ccAA | ffdd |
eecc | f4

